icons/breezeLight/actions/16/zoom-original.svg

<svg height="16" viewBox="0 0 16 16" width="16" xmlns="http://www.w3.org/2000/svg"><path d="m2 2v1 2h1v-2h2v-1h-2zm9 0v1h2v2h1v-2-1h-1zm-7 2v8h8v-8zm1 1h6v6h-6zm-3 6v2 1h3v-1h-2v-2zm11 0v2h-2v1h3v-3z" fill="#4d4d4d"/></svg>

<?xml version="1.0" encoding="UTF-8" standalone="no"?>
<svg
   xmlns:dc="http://purl.org/dc/elements/1.1/"
   xmlns:cc="http://creativecommons.org/ns#"
   xmlns:rdf="http://www.w3.org/1999/02/22-rdf-syntax-ns#"
   xmlns:svg="http://www.w3.org/2000/svg"
   xmlns="http://www.w3.org/2000/svg"
   xmlns:sodipodi="http://sodipodi.sourceforge.net/DTD/sodipodi-0.dtd"
   xmlns:inkscape="http://www.inkscape.org/namespaces/inkscape"
   inkscape:version="1.0beta1 (fe3e306, 2019-09-17)"
   height="16"
   width="16"
   sodipodi:docname="zoom-original.svg"
   id="svg6"
   version="1.1"
   viewBox="0 0 16 16">
  <metadata
     id="metadata10">
    <rdf:RDF>
      <cc:Work
         rdf:about="">
        <dc:format>image/svg+xml</dc:format>
        <dc:type
           rdf:resource="http://purl.org/dc/dcmitype/StillImage" />
        <dc:title></dc:title>
      </cc:Work>
    </rdf:RDF>
  </metadata>
  <sodipodi:namedview
     inkscape:current-layer="svg6"
     inkscape:window-maximized="0"
     inkscape:window-y="0"
     inkscape:window-x="630"
     inkscape:cy="-11.978684"
     inkscape:cx="1.4833852"
     inkscape:zoom="10.727273"
     showgrid="true"
     id="namedview8"
     inkscape:window-height="1042"
     inkscape:window-width="1274"
     inkscape:pageshadow="2"
     inkscape:pageopacity="0"
     guidetolerance="10"
     gridtolerance="10"
     objecttolerance="10"
     borderopacity="1"
     inkscape:document-rotation="0"
     bordercolor="#666666"
     pagecolor="#ffffff">
    <inkscape:grid
       id="grid835"
       type="xygrid" />
  </sodipodi:namedview>
  <defs
     id="defs3051">
    <style
       id="current-color-scheme"
       type="text/css">
      .ColorScheme-Text {
        color:#4d4d4d;
      }
      </style>
  </defs>
  <path
     sodipodi:nodetypes="ccccccccccccccccccccccccccccccccccccccccccc"
     inkscape:connector-curvature="0"
     id="path4"
     class="ColorScheme-Text"
     d="M 2,2 V 3 5 H 3 V 3 H 5 V 2 H 3 Z m 9,0 v 1 h 2 v 2 h 1 V 3 2 H 13 Z M 4,4 v 8 h 8 V 4 Z m 1,1 h 6 v 6 H 5 Z m -3,6 v 2 1 H 5 V 13 H 3 v -2 z m 11,0 v 2 h -2 v 1 h 3 v -3 z"
     style="fill:currentColor;fill-opacity:1;stroke:none" />
</svg>
